X: 30414
T: RANDALL'S HORNPIPE
C:
%R: hornpipe, reel
B: Elias Howe "The Musician's Companion" Part 3 1844 p.41 #4
S: http://imslp.org/wiki/The_Musician's_Companion_(Howe,_Elias)
S: https://archive.org/stream/firstthirdpartof03howe/#page/66/mode/1up
Z: 2016 John Chambers <jc:trillian.mit.edu>
M: 2/4
L: 1/16
K: Bb
% - - - - - - - - - - - - - - - - - - - - - - - - -
FE |\
CBAB FBAB | dB fd b2 BA | GBFB EBDB | cdec BAGF |\
CBAB FBAB | dB fd b2 BA | GBFB EBDB | ce Ac B2 :|
|: fg |\
df Bd FB DB | dB FD Ec DB | CFAc ec AF | Bb fd c2fb |\
df Bd FB DB | dB FD Ec DB | CF Ac ecAc | B2B2B2 :|
% - - - - - - - - - - - - - - - - - - - - - - - - -
